X: 1973
T: Yaylanın Çimenine
C: Nejat Buhara
O: Turkey
F: http://compmusic.upf.edu/node/140
N: huseyni--turku--sofyan--yaylanin_cimenine--trabzon
N: makam= huseyni
N: form= turku
N: usul= sofyan = 4/4
M: 4/4
L: 1/16
K: C _2/4B ^3/4f  
Q: 1/4=90
%%MIDI tuningsystem comma53
Acde .e2.e2 .e2.e2 .e2.e2  | e=fed e4 Acde e2e2  | 
w:  ARANAĞME  |   | 
e=fed e4 d3/2c/d2 e4  | d3/2c/d2 e4 d3/2c/d2 e4  | \
w:   |   | 
d4 d4 d2Bd c2BA  | 
w:   | 
GAGd d4 d2Bd c2BA  | GAGd d4 d2Bd c2BA  | 
w:   |   | 
A2Bd c2BG A2Bd c2BG  | A2Bd c2BG A2Bd c2BG  | 
w:   |   | 
d2{A}c2 {A}e2{A}d2 {A}d2{A}c2 {A}c2BA  | \
w:   | 
d2{A}c2 {A}e2{A}d2 {A}d2{A}c2 {A}c2BA  | \
w:   | 
GABd c2BG GABd c2BG  | 
w:   | 
zd2d d4 dd3 dd3  | de2d d4 dd3 d2d2  | \
w:  Yay la nın  çi me ni ne    |  O  yay la nın  çi me ni ne    | 
d2d2 c2BA A2BA c2d2  | 
w:  Ku zu  ya *  *  yı lır  *  ku zu    | 
d2d2 c2BA A2BA c2BA  | A2BG c2BG A2BG c2BG  | 
w:  Ku zu  ya *  *  yı lır  *  ku zu    |  SAZ  | 
d3d d4 d3d d2d2  | d3d d4 d3d d2d2  | \
w:  Gün  de  bu gün kü  gün dür    |  Gün  de  bu gün kü  gün dür    | 
d2d2 c2BA A2BA c2d2  | 
w:  Sal lan  yos *  *  ma nın  *  kı zı    | 
d2d2 c2BA A2BA c2BA  | A2BG c2BG A2BG c2BG  | 
w:  Sal lan  yos *  *  ma nın  *  kı zı    |  SAZ  | 
AABG ccBG AABA ccB2  | dd3 c2BA A2AG c2d2  | 
w:  A man  *  *  kı zı  *  *  Ça çan  *  *  kı zı    |  Sen_ al lar  giy  *  ben  kır *  mı zı    | 
ddd2 c2BA A2AG ccde  | d2d2 c2BA A2Bd ccB2  | 
w:  Çı ka lım  dağ la *  rın  ba *  şı na    |  Sen  gül  top la  *  ben  ner *  gi zi    | 
f2g14  | ^fgag a2z2 f2z2 _3/4eddc  | d16  | \
w:  SAZ  |   |   | 
^fgag a2z2 f2z2 _3/4eddc  | 
w:   | 
d16  | c4 Bcd2 d3d ddd2  | cBcG Bcd2 d3d ddd2  | 
w:   |   |   | 
de=fe fefe fefe fefe  | g^fg2 e2d2 d2Bd c2BA  | 
w:   |   | 
A2Bd c2BG A2Bd c2BG  | A2Bd c2BG A2Bd c2BG  | 
w:   |   | 
d2{A}c2 {A}e2{A}d2 {A}d2{A}c2 {A}c2BA  | \
w:   | 
d2{A}c2 {A}e2{A}d2 {A}d2{A}c2 {A}c2BA  | \
w:   | 
GABd c2BG GABd c2BG  | 
w:   | 
A8 z8  | Acde .e2.e2 .e2.e2 .e2.e2  | \
w:   |  ARANAĞME  | 
e=fed e4 Acde e2e2  | 
w:   | 
e=fed e4 d3/2c/d2 e4  | d3/2c/d2 e4 d3/2c/d2 e4  | \
w:   |   | 
d4 d4 d2Bd c2BA  | 
w:   | 
GAGd d4 d2Bd c2BA  | GAGd d4 d2Bd c2BA  | 
w:   |   | 
A2Bd c2BG A2Bd c2BG  | A2Bd c2BG A2Bd c2BG  | 
w:   |   | 
d2{A}c2 {A}e2{A}d2 {A}d2{A}c2 {A}c2BA  | \
w:   | 
d2{A}c2 {A}e2{A}d2 {A}d2{A}c2 {A}c2BA  | \
w:   | 
GABd c2BG GABd c2BG  | 
w:   | 
zd2d d4 dd3 dd3  | de2d d4 dd3 d2d2  | \
w:  Yay la nın  çi me ni ne    |  O  yay la nın  çi me ni ne    | 
d2d2 c2BA A2BA c2d2  | 
w:  Ku zu  ya *  *  yı lır  *  ku zu    | 
d2d2 c2BA A2BA c2BA  | A2BG c2BG A2BG c2BG  | 
w:  Ku zu  ya *  *  yı lır  *  ku zu    |  SAZ  | 
d3d d4 d3d d2d2  | d3d d4 d3d d2d2  | \
w:  Gün  de  bu gün kü  gün dür    |  Gün  de  bu gün kü  gün dür    | 
d2d2 c2BA A2BA c2d2  | 
w:  Sal lan  yos *  *  ma nın  *  kı zı    | 
d2d2 c2BA A2BA c2BA  | A2BG c2BG A2BG c2BG  | 
w:  Sal lan  yos *  *  ma nın  *  kı zı    |  SAZ  | 
AABG ccBG AABA ccB2  | dd3 c2BA A2AG c2d2  | 
w:  A man  *  *  kı zı  *  *  Ça çan  *  *  kı zı    |  Sen_ al lar  giy  *  ben  kır *  mı zı    | 
ddd2 c2BA A2AG ccde  | d2d2 c2BA A2Bd ccB2  | 
w:  Çı ka lım  dağ la *  rın  ba *  şı na    |  Sen  gül  top la  *  ben  ner *  gi zi    | 
f2g14  | ^fgag a2z2 f2z2 _3/4eddc  | d16  | \
w:  SAZ  |   |   | 
^fgag a2z2 f2z2 _3/4eddc  | 
w:   | 
d16  | c4 Bcd2 d3d ddd2  | cBcG Bcd2 d3d ddd2  | 
w:   |   |   | 
de=fe fefe fefe fefe  | g^fg2 e2d2 d2Bd c2BA  | 
w:   |   | 
A2Bd c2BG A2Bd c2BG  | A2Bd c2BG A2Bd c2BG  | 
w:   |   | 
d2{A}c2 {A}e2{A}d2 {A}d2{A}c2 {A}c2BA  | \
w:   | 
d2{A}c2 {A}e2{A}d2 {A}d2{A}c2 {A}c2BA  | \
w:   | 
GABd c2BG GABd c2BG  | 
w:   | 
A8 z8  | |


